X:1
T:Befiehl, 76.76 D
T:Johann Michael Haydn (1737-1806)
T:Befiehl, 76.76 D
T:Public Domain
C:Johann Michael Haydn (1737-1806)
Z:Public Domain
%%score ( 1 2 ) ( 3 4 )
L:1/8
M:4/4
K:F
V:1 treble 
V:2 treble 
V:3 bass 
V:4 bass 
V:1
 [Fc]2 | [Gc]2 [FA]2 (cBA)[EG] | (F2 A2) [EG]2 (FG) | [Ac]2 ([Fd][GB]) [FA]2 [EG]2 | %4
 [CF]4 z2 [Fc]2 | [Gc]2 [FA]2 (cBA)[EG] | (F2 B2) [FA]2 (FG) | [Ac]2 ([Fd][GB]) [FA]2 [EG]2 | %8
 [CF]4 z2 (EF) | [EG]2 [FA]2 [EG]2 (Ac) | (B2 A2) [EG]2 (F[EG]) | [FA]2 (Bd) [Fc]2 ([FB][Ec]) | %12
 [FA]4 z2 [Ac]2 | [Gc]2 [FA]2 (cBA)[EG] | (F2 A2) [EG]2 [Fd]2 | [Fc]2 ([Fd][GB]) [FA]2 [EG]2 | %16
 [CF]6 z3 |] %17
V:2
 x2 | x4 E3 x | F4 d2 x2 | x8 | x8 | x4 E3 x | F4 d2 x2 | x8 | x6 C2 | x6 F2 | F4 x4 | x2 F2 x4 | %12
 x8 | x4 E3 x | F4 x4 | x8 | x9 |] %17
V:3
 [F,A,]2 | [E,C]2 [F,C]2 [C,C]3 [C,B,] | ([D,A,]2 A,,B,,) [C,C]2 (DE) | %3
 [F,F]2 [B,,D]2 [C,C]2 (CB,) | [F,A,]4 z2 [F,A,]2 | [E,C]2 [F,C]2 [C,C]3 [C,B,] | %6
 ([D,A,]2 A,,B,,) [C,C]2 (DE) | [F,F]2 [B,,D]2 [C,C]2 (CB,) | [F,A,]4 z2 (G,A,) | %9
 [C,C]2 [F,C]2 [C,C]2 (CA,) | (B,,2 =B,,2) [C,C]2 ([D,A,][C,C]) | %11
 [F,C]2 (D,B,,) [F,A,]2 ([G,D][C,C]) | [F,C]4 z2 [F,C]2 | [E,C]2 [F,C]2 [C,C]3 [C,B,] | %14
 ([D,A,]2 A,,B,,) [C,C]2 [B,,F,]2 | [A,,C]2 (B,D) [C,C]2 (CB,) | [F,A,]6 z3 |] %17
V:4
 x2 | x8 | x2 C2 x B,,2 x | x6 C,2 | x8 | x8 | x2 C2 x B,,2 x | x6 C,2 | x6 C,2 | x6 F,2 | D4 x4 | %11
 x2 B,2 x4 | x8 | x8 | x2 C2 x4 | x2 B,,2 x C,2 x | x9 |] %17

